web/ui/src/assets/svgs/index/git-label.svg

<svg height="26" viewBox="0 0 26 26" width="26" xmlns="http://www.w3.org/2000/svg"><g fill="none"><path d="m0 0h26v26h-26z" fill="#000" opacity="0"/><path d="m13 1.62494978c-.4095 0-.80925.14955022-1.1171875.45748772l-2.2855625 2.3099375c-.1235.066625-.2275.1625-.303875.2795l-7.21175 7.2109375c-.61590575.6174608-.61590575 1.6169142 0 2.234375l9.8011875 9.8011875c.6189242.6123561 1.6154508.6123561 2.234375 0l9.8011875-9.8011875c.6159057-.6174608.6159057-1.6169142 0-2.234375l-9.802-9.8011875c-.2960069-.29549689-.6981319-.45997597-1.116375-.45667522zm0 1.65023772 9.7248125 9.7248125-9.7248125 9.7248125-9.7248125-9.7248125 6.729125-6.7283125 1.421875 1.421875c-.0364925.14083633-.053712.28597202-.0511875.4314375 0 .599625.326625 1.1139375.8125 1.3966875v6.956625c-.485875.28275-.8125.79625-.8125 1.3966875 0 .8974627.7275373 1.625 1.625 1.625s1.625-.7275373 1.625-1.625c0-.599625-.326625-1.1139375-.8125-1.3966875v-6.3724375l2.4886875 2.487875c-.1260102.4867356-.0194971 1.0043887.2884435 1.401834.3079406.3974452.7825868.6298687 1.285369.629416.897 0 1.6241875-.7271875 1.6241875-1.625.0007045-.5029248-.231613-.9778057-.6290943-1.2859331-.3974812-.3081275-.9152818-.4147382-1.4021557-.2886919l-2.894125-2.894125c.1260102-.48673564.0194971-1.0043887-.2884435-1.40183397s-.7825868-.62986875-1.285369-.62941603c-.145194-.002451-.2900514.0147679-.430625.0511875l-1.421875-1.421875z" fill="#6b7b8d" stroke="#fff" stroke-width=".3"/></g></svg>

<?xml version="1.0" encoding="UTF-8"?>
<svg width="26px" height="26px" viewBox="0 0 26 26" version="1.1" xmlns="http://www.w3.org/2000/svg" xmlns:xlink="http://www.w3.org/1999/xlink">
    <title>git备份</title>
    <g id="页面-1" stroke="none" stroke-width="1" fill="none" fill-rule="evenodd">
        <g id="建木自动化-首页界面" transform="translate(-383.000000, -418.000000)" fill-rule="nonzero">
            <g id="编组-8" transform="translate(199.677083, 418.000000)">
                <g id="git备份" transform="translate(183.322917, 0.000000)">
                    <rect id="矩形" fill="#000000" opacity="0" x="0" y="0" width="26" height="26"></rect>
                    <path d="M13,1.62494978 C12.5905,1.62494978 12.19075,1.7745 11.8828125,2.0824375 L9.59725,4.392375 C9.47375,4.459 9.36975,4.554875 9.293375,4.671875 L2.081625,11.8828125 C1.46571925,12.5002733 1.46571925,13.4997267 2.081625,14.1171875 L11.8828125,23.918375 C12.5017367,24.5307311 13.4982633,24.5307311 14.1171875,23.918375 L23.918375,14.1171875 C24.5342807,13.4997267 24.5342807,12.5002733 23.918375,11.8828125 L14.116375,2.081625 C13.8203681,1.78612811 13.4182431,1.62164903 13,1.62494978 Z M13,3.2751875 L22.7248125,13 L13,22.7248125 L3.2751875,13 L10.0043125,6.2716875 L11.4261875,7.6935625 C11.389695,7.83439883 11.3724755,7.97953452 11.375,8.125 C11.375,8.724625 11.701625,9.2389375 12.1875,9.5216875 L12.1875,16.4783125 C11.701625,16.7610625 11.375,17.2745625 11.375,17.875 C11.375,18.7724627 12.1025373,19.5 13,19.5 C13.8974627,19.5 14.625,18.7724627 14.625,17.875 C14.625,17.275375 14.298375,16.7610625 13.8125,16.4783125 L13.8125,10.105875 L16.3011875,12.59375 C16.1751773,13.0804856 16.2816904,13.5981387 16.589631,13.995584 C16.8975716,14.3930292 17.3722178,14.6254527 17.875,14.625 C18.772,14.625 19.4991875,13.8978125 19.4991875,13 C19.499892,12.4970752 19.2675745,12.0221943 18.8700932,11.7140669 C18.472612,11.4059394 17.9548114,11.2993287 17.4679375,11.425375 L14.5738125,8.53125 C14.6998227,8.04451436 14.5933096,7.5268613 14.285369,7.12941603 C13.9774284,6.73197076 13.5027822,6.49954728 13,6.5 C12.854806,6.497549 12.7099486,6.5147679 12.569375,6.5511875 L11.1475,5.1293125 L13,3.2751875 Z" id="形状" stroke="#FFFFFF" stroke-width="0.3" fill="#6B7B8D"></path>
                </g>
            </g>
        </g>
    </g>
</svg>
